X:1
T: Mrs. Anderson of Fochaber's Strathspey
C:William Marshall
R:Strathspey
Q: 128
K:A
M:4/4
L:1/16
|:cd|e3f e2c2 e3f e2c2|B3c d2e2 f2B2 B2cd|e3f e2c2 A2a2 g3f|fedc Bcde c2A2 A2cd|
e3f e2c2 e3f e2c2|B3c d2e2 f2B2 B2cd|e3f e2c2 A2a2 g3f|fedc Bcde c2A2 A2E2|
C2A,2 A2E2 c2A2 e2c2|d3e fedc B2F2 F2B2|A2c2 E2c2 B2d2 E2d2|cagf edcB c2A2 A2E2|
C2A,2 A2E2 c2A2 e2c2|d3e fedc B2F2 F2B2|A2c2 E2c2 B2d2 E2d2|cagf edcB c2A2 A2:|
